symbols/web/other_houses/materialsymbolsoutlined/other_houses_wght100_48px.svg

<svg xmlns="http://www.w3.org/2000/svg" height="48" width="48"><path d="M10.6 39.4V20.85l-4.15 3.2-.65-.85L24 9.25 42.2 23.2l-.65.85-4.15-3.2V39.4Zm1.1-1.1h24.6V20.05L24 10.65l-12.3 9.4Zm0 0h24.6-24.6Zm4.3-8.9q-.55 0-.975-.425Q14.6 28.55 14.6 28t.425-.975q.425-.425.975-.425t.975.425q.425.425.425.975t-.425.975q-.425.425-.975.425Zm8 0q-.55 0-.975-.425Q22.6 28.55 22.6 28t.425-.975q.425-.425.975-.425t.975.425q.425.425.425.975t-.425.975q-.425.425-.975.425Zm8 0q-.55 0-.975-.425Q30.6 28.55 30.6 28t.425-.975q.425-.425.975-.425t.975.425q.425.425.425.975t-.425.975q-.425.425-.975.425Z"/></svg>

<svg xmlns="http://www.w3.org/2000/svg" height="48" width="48"><path d="M10.6 39.4V20.85L6.45 24.05L5.8 23.2L24 9.25L42.2 23.2L41.55 24.05L37.4 20.85V39.4ZM11.7 38.3H36.3V20.05L24 10.65L11.7 20.05ZM11.7 38.3H36.3H24H11.7ZM16 29.4Q15.45 29.4 15.025 28.975Q14.6 28.55 14.6 28Q14.6 27.45 15.025 27.025Q15.45 26.6 16 26.6Q16.55 26.6 16.975 27.025Q17.4 27.45 17.4 28Q17.4 28.55 16.975 28.975Q16.55 29.4 16 29.4ZM24 29.4Q23.45 29.4 23.025 28.975Q22.6 28.55 22.6 28Q22.6 27.45 23.025 27.025Q23.45 26.6 24 26.6Q24.55 26.6 24.975 27.025Q25.4 27.45 25.4 28Q25.4 28.55 24.975 28.975Q24.55 29.4 24 29.4ZM32 29.4Q31.45 29.4 31.025 28.975Q30.6 28.55 30.6 28Q30.6 27.45 31.025 27.025Q31.45 26.6 32 26.6Q32.55 26.6 32.975 27.025Q33.4 27.45 33.4 28Q33.4 28.55 32.975 28.975Q32.55 29.4 32 29.4Z"/></svg>
